app/assets/images/remix_icon/user/open-arm-line.svg

<svg viewBox="0 0 24 24" xmlns="http://www.w3.org/2000/svg"><path d="M18.0014 17V22H16.0014V17C16.0014 12.5487 18.6454 8.71498 22.4485 6.98352L23.2763 8.8047C20.1646 10.2213 18.0014 13.3581 18.0014 17ZM8.00143 17V22H6.00143V17C6.00143 13.3581 3.8382 10.2213 0.726562 8.8047L1.55437 6.98352C5.35749 8.71498 8.00143 12.5487 8.00143 17ZM12.0014 12C9.24 12 7.00143 9.76142 7.00143 7C7.00143 4.23858 9.24 2 12.0014 2C14.7628 2 17.0014 4.23858 17.0014 7C17.0014 9.76142 14.7628 12 12.0014 12ZM12.0014 10C13.6583 10 15.0014 8.65685 15.0014 7C15.0014 5.34315 13.6583 4 12.0014 4C10.3446 4 9.00142 5.34315 9.00142 7C9.00142 8.65685 10.3446 10 12.0014 10Z"/></svg>

<svg xmlns="http://www.w3.org/2000/svg" viewBox="0 0 24 24">
    <g>
        <path fill="none" d="M0 0h24v24H0z"/>
        <path d="M18 17v5h-2v-5c0-4.451 2.644-8.285 6.447-10.016l.828 1.82A9.002 9.002 0 0 0 18 17zM8 17v5H6v-5A9.002 9.002 0 0 0 .725 8.805l.828-1.821A11.002 11.002 0 0 1 8 17zm4-5a5 5 0 1 1 0-10 5 5 0 0 1 0 10zm0-2a3 3 0 1 0 0-6 3 3 0 0 0 0 6z"/>
    </g>
</svg>
